static/assets/images/tokens/ousd.svg

<svg width="256" height="256" viewBox="0 0 256 256" fill="none" xmlns="http://www.w3.org/2000/svg">
<path d="M255.999 127.571C256.237 198.263 199.121 255.763 128.429 255.999C57.7369 256.237 0.237627 199.121 0.000734208 128.429C-0.236152 57.7369 56.8791 0.237623 127.571 0.000734229C198.263 -0.236155 255.763 56.879 255.999 127.571Z" fill="#030C17"/>
<path d="M141.219 114.862C139.768 114.619 138.438 114.257 137.108 114.014C119.215 110.381 106.28 107.839 106.28 95.3662C106.28 87.616 113.896 81.4401 127.558 81.4401C139.768 81.4401 149.44 86.4051 155.726 95.7289L156.694 95.9717L176.158 75.9911L176.037 75.265C168.3 66.0619 158.507 59.644 147.264 56.2535C145.692 55.7692 144.241 55.4059 142.669 55.0426H142.548C141.944 54.9215 141.461 54.8004 140.856 54.6793V37H114.259V54.6793C113.412 54.8004 112.566 55.0426 111.72 55.1637H111.599C99.0259 58.191 88.0242 64.7296 79.4403 74.7802C75.8134 80.8347 74 88.1008 74 96.4557C74 125.033 95.5195 134.115 116.556 139.201C120.424 140.169 124.294 140.896 128.041 141.502C141.219 143.924 152.583 145.982 152.583 157.849C152.583 165.236 144.483 174.439 127.558 174.439C117.523 174.439 109.302 171.048 103.257 164.872C102.894 164.509 102.411 164.146 102.048 163.783L79.0774 179.766V180.614C82.3422 184.489 85.9691 187.88 89.8376 190.786C91.1678 191.755 92.4971 192.602 93.8273 193.45C93.8273 193.45 93.8273 193.45 93.9477 193.45C95.2779 194.297 96.7285 195.024 98.0586 195.751C98.0586 195.751 98.1798 195.751 98.1798 195.872C99.6304 196.598 100.96 197.204 102.411 197.809C102.532 197.809 102.532 197.809 102.653 197.931C104.103 198.536 105.554 199.02 107.005 199.504C107.126 199.504 107.247 199.504 107.247 199.626C107.972 199.868 108.576 199.989 109.302 200.231C109.423 200.231 109.423 200.231 109.544 200.231C110.269 200.473 110.994 200.595 111.841 200.837C111.962 200.837 112.083 200.837 112.203 200.958C112.808 201.079 113.533 201.2 114.138 201.321V219H140.735V201.321C141.219 201.2 141.702 201.2 142.186 201.079C142.307 201.079 142.307 201.079 142.428 201.079C144.241 200.715 146.055 200.231 147.868 199.626C148.714 199.384 149.682 199.02 150.528 198.778C160.32 195.145 168.904 189.091 175.916 180.857C178.576 177.708 180.873 174.439 182.928 170.806C184.016 166.931 184.5 162.572 184.5 157.97C184.621 127.213 161.408 118.857 141.219 114.862Z" fill="white"/>
<path d="M79.2227 180.5C77.8872 178.928 76.6733 177.355 75.5811 175.662C75.0951 174.936 74.6099 174.211 74.1239 173.606C74.003 173.485 73.8813 173.243 73.7603 173.122C73.396 172.517 72.91 171.792 72.5465 171.066C72.4248 170.824 72.3031 170.583 72.1822 170.34C71.8178 169.735 71.4535 169.01 71.0892 168.405C70.9683 168.163 70.8466 167.921 70.7257 167.679C70.3614 167.075 69.9971 166.349 69.7544 165.624C69.6327 165.382 69.5118 165.019 69.3901 164.777C69.0258 164.051 68.7832 163.446 68.4189 162.72C68.2972 162.479 68.1763 162.237 68.0546 161.874C67.8119 161.149 67.4476 160.423 67.205 159.697C67.205 159.576 67.0833 159.334 67.0833 159.213C66.4764 157.52 65.8695 155.827 65.3842 154.134C65.3842 154.012 65.2625 153.891 65.2625 153.649C65.1416 153.045 64.899 152.44 64.7773 151.835C64.6556 151.352 64.5347 150.868 64.413 150.384C64.292 149.779 64.1703 149.296 64.0487 148.691C63.9277 148.207 63.806 147.602 63.6851 147.119C63.5634 146.514 63.4417 146.03 63.3208 145.425C63.1991 144.82 63.0782 144.215 62.9565 143.611C62.8348 143.127 62.8348 142.523 62.7139 142.038C62.5922 141.434 62.4712 140.829 62.4712 140.104C62.3496 139.619 62.3496 139.136 62.2279 138.531C62.1069 137.805 62.1069 137.2 61.9852 136.475C61.9852 135.991 61.8643 135.508 61.8643 135.024C61.8643 134.177 61.7426 133.452 61.7426 132.605C61.7426 132.242 61.7426 131.879 61.6209 131.396C61.6209 130.185 61.5 128.976 61.5 127.767C61.5 126.557 61.5 125.469 61.6209 124.259C61.6209 123.896 61.6209 123.533 61.6209 123.171C61.6209 122.324 61.7426 121.599 61.7426 120.752C61.7426 120.389 61.8643 119.905 61.8643 119.543C61.9852 118.817 61.9852 117.97 62.1069 117.244C62.1069 116.881 62.2279 116.518 62.2279 116.156C62.3496 115.188 62.4712 114.342 62.5922 113.495C62.5922 113.253 62.5922 113.011 62.7139 112.89C62.8348 111.802 63.0782 110.714 63.3208 109.625C63.4417 109.262 63.4417 108.899 63.5634 108.657C63.6851 107.932 63.9277 107.206 64.0487 106.48C64.1703 106.118 64.292 105.633 64.292 105.27C64.413 104.545 64.6556 103.94 64.7773 103.214C64.899 102.851 65.0199 102.368 65.1416 102.005C65.3842 101.28 65.6268 100.554 65.7485 99.8277C65.8695 99.4655 65.9911 99.223 66.1128 98.8608C66.4764 97.893 66.8407 96.9253 67.205 95.9576C67.3267 95.5946 67.4476 95.3529 67.5693 94.9899C67.8119 94.2646 68.0546 93.6599 68.4189 92.9339C68.5406 92.5709 68.7832 92.208 68.9041 91.7245C69.1475 91.1198 69.3901 90.6363 69.7544 90.0315C69.9971 89.6686 70.1187 89.1843 70.3614 88.8221C70.604 88.2174 70.9683 87.7331 71.2109 87.1284C71.4535 86.7654 71.5752 86.4032 71.8178 86.0402C72.3031 85.1937 72.7891 84.3465 73.2743 83.5C72.1822 87.4914 71.6962 91.8457 71.6962 96.4418C71.6962 112.165 78.3724 124.138 91.604 132.242C92.3326 146.393 96.4594 157.52 103.5 164.656L79.2227 180.5Z" fill="url(#paint0_linear_9226_924)"/>
<path d="M155.5 95.8157C159.615 101.988 162.277 109.734 163.246 119.053C166.634 120.626 169.538 122.441 172.201 124.499C182.003 132.123 186.965 143.257 186.965 157.417C186.965 159.111 186.844 160.806 186.723 162.5V162.379C187.207 161.29 187.691 160.08 188.054 158.869C188.176 158.506 188.296 158.264 188.417 157.901C188.659 157.054 189.023 156.207 189.264 155.36C189.386 154.997 189.506 154.512 189.628 154.15C189.749 153.665 189.991 153.06 190.111 152.576C190.354 151.85 190.475 151.245 190.716 150.519C190.838 150.035 190.959 149.429 191.08 148.946C191.201 148.341 191.322 147.735 191.443 147.13C191.564 146.767 191.564 146.283 191.685 145.92C191.806 145.072 192.048 144.105 192.169 143.257C192.169 142.895 192.29 142.531 192.29 142.168C192.411 141.2 192.532 140.231 192.653 139.264C192.653 139.021 192.653 138.901 192.774 138.659C192.895 137.69 193.016 136.843 193.016 135.875C193.016 135.633 193.016 135.391 193.138 135.149C193.258 134.06 193.258 132.97 193.379 131.881C193.379 131.639 193.379 131.397 193.379 131.155C193.379 130.066 193.5 128.856 193.5 127.766C193.5 126.556 193.5 125.346 193.379 124.015C193.379 123.652 193.379 123.288 193.258 122.805C193.258 121.957 193.138 121.11 193.138 120.384C193.138 119.9 193.016 119.416 193.016 118.931C192.895 118.206 192.895 117.479 192.774 116.753C192.774 116.269 192.653 115.785 192.532 115.18C192.411 114.454 192.411 113.848 192.29 113.123C192.169 112.638 192.169 112.033 192.048 111.549C191.927 110.944 191.806 110.218 191.685 109.613C191.564 109.129 191.443 108.524 191.322 108.039C191.201 107.434 191.08 106.829 190.959 106.224C190.838 105.74 190.716 105.135 190.596 104.65C190.475 104.045 190.233 103.44 190.111 102.835C189.991 102.351 189.869 101.746 189.628 101.262C189.506 100.657 189.264 100.173 189.144 99.5677C189.022 99.0839 188.781 98.4788 188.659 97.9942C188.417 97.3891 188.296 96.9053 188.054 96.4208C187.812 95.937 187.691 95.3319 187.449 94.8481C187.207 94.3636 187.086 93.7584 186.844 93.2747C186.602 92.7901 186.36 92.185 186.239 91.7012C185.997 91.2174 185.755 90.7329 185.513 90.2491C185.271 89.7646 185.029 89.2808 184.787 88.6757C184.545 88.1919 184.303 87.7073 184.06 87.2236C183.819 86.739 183.577 86.2552 183.214 85.7714C182.972 85.2869 182.73 84.8031 182.367 84.4399C182.125 83.9561 181.761 83.4716 181.52 82.9878C181.278 82.5032 180.914 82.14 180.673 81.6562C179.825 80.3247 178.857 78.9939 177.889 77.6623C177.163 76.694 176.436 75.847 175.711 75L155.5 95.8157Z" fill="url(#paint1_linear_9226_924)"/>
<defs>
<linearGradient id="paint0_linear_9226_924" x1="103.728" y1="134.983" x2="46.9184" y2="92.534" gradientUnits="userSpaceOnUse">
<stop offset="0.00058093" stop-color="white"/>
<stop offset="1" stop-color="#1E313F"/>
</linearGradient>
<linearGradient id="paint1_linear_9226_924" x1="152.737" y1="113.703" x2="205.179" y2="154.586" gradientUnits="userSpaceOnUse">
<stop offset="0.00058093" stop-color="white"/>
<stop offset="0.9967" stop-color="#4E5A64"/>
</linearGradient>
</defs>
</svg>

<svg xmlns="http://www.w3.org/2000/svg" fill="none" viewBox="0 0 256 256"><path fill="#030C17" d="M255.999 127.571c.238 70.692-56.878 128.192-127.57 128.428C57.737 256.237.238 199.121.001 128.429S56.879.238 127.57.001s128.192 56.878 128.428 127.57"/><path fill="#fff" d="M141.219 114.862c-1.451-.243-2.781-.605-4.111-.848-17.893-3.633-30.828-6.175-30.828-18.648 0-7.75 7.616-13.926 21.278-13.926 12.21 0 21.882 4.965 28.168 14.289l.968.243 19.464-19.98-.121-.727c-7.737-9.203-17.53-15.621-28.773-19.011-1.572-.485-3.023-.848-4.595-1.211h-.121c-.604-.121-1.087-.243-1.692-.364V37h-26.597v17.68c-.847.12-1.693.363-2.539.484h-.121C99.026 58.19 88.024 64.73 79.44 74.78 75.813 80.835 74 88.1 74 96.456c0 28.577 21.52 37.659 42.556 42.745 3.868.968 7.738 1.695 11.485 2.301 13.178 2.422 24.542 4.48 24.542 16.347 0 7.387-8.1 16.59-25.025 16.59-10.035 0-18.256-3.391-24.301-9.567-.363-.363-.846-.726-1.209-1.089l-22.97 15.983v.848a65.5 65.5 0 0 0 10.76 10.172c1.33.969 2.66 1.816 3.99 2.664h.12c1.33.847 2.78 1.574 4.11 2.301 0 0 .122 0 .122.121 1.45.726 2.78 1.332 4.231 1.937.121 0 .121 0 .242.122 1.45.605 2.901 1.089 4.352 1.573.121 0 .242 0 .242.122.725.242 1.329.363 2.055.605h.242c.725.242 1.45.364 2.297.606.121 0 .242 0 .362.121.605.121 1.33.242 1.935.363V219h26.597v-17.679c.484-.121.967-.121 1.451-.242h.242a45 45 0 0 0 5.44-1.453c.846-.242 1.814-.606 2.66-.848 9.792-3.633 18.376-9.687 25.388-17.921a65 65 0 0 0 7.012-10.051c1.088-3.875 1.572-8.234 1.572-12.836.121-30.757-23.092-39.113-43.281-43.108"/><path fill="url(#paint0_linear_9226_924)" d="M79.223 180.5c-1.336-1.572-2.55-3.145-3.642-4.838-.486-.726-.971-1.451-1.457-2.056-.121-.121-.243-.363-.364-.484-.364-.605-.85-1.33-1.214-2.056l-.364-.726c-.364-.605-.728-1.33-1.093-1.935l-.363-.726a10.7 10.7 0 0 1-.972-2.055c-.121-.242-.242-.605-.364-.847-.364-.726-.607-1.331-.971-2.057a6 6 0 0 1-.364-.846c-.243-.725-.607-1.451-.85-2.177 0-.121-.122-.363-.122-.484-.607-1.693-1.213-3.386-1.699-5.079 0-.122-.121-.243-.121-.485-.121-.604-.364-1.209-.486-1.814l-.364-1.451c-.121-.605-.243-1.088-.364-1.693-.121-.484-.243-1.089-.364-1.572-.122-.605-.243-1.089-.364-1.694l-.364-1.814c-.122-.484-.122-1.088-.243-1.573-.122-.604-.243-1.209-.243-1.934-.121-.485-.121-.968-.243-1.573-.121-.726-.121-1.331-.243-2.056 0-.484-.12-.967-.12-1.451 0-.847-.122-1.572-.122-2.419 0-.363 0-.726-.122-1.209 0-1.211-.121-2.42-.121-3.629s0-2.298.12-3.508v-1.088c0-.847.123-1.572.123-2.419 0-.363.121-.847.121-1.209.121-.726.121-1.573.243-2.299 0-.363.12-.726.12-1.088.123-.968.244-1.814.365-2.661 0-.242 0-.484.122-.605.12-1.088.364-2.176.607-3.265.12-.363.12-.726.242-.968.122-.725.365-1.451.486-2.177.121-.362.243-.847.243-1.21.121-.725.364-1.33.485-2.056.122-.363.243-.846.365-1.209.242-.725.485-1.451.607-2.177.12-.362.242-.605.364-.967q.545-1.452 1.092-2.903c.122-.363.243-.605.364-.968.243-.725.486-1.33.85-2.056.122-.363.364-.726.485-1.21.243-.604.486-1.088.85-1.693.243-.362.365-.847.607-1.209.243-.605.607-1.089.85-1.694.243-.363.364-.725.607-1.088l1.456-2.54c-1.092 3.991-1.578 8.346-1.578 12.942 0 15.723 6.676 27.696 19.908 35.8.729 14.151 4.855 25.278 11.896 32.414z"/><path fill="url(#paint1_linear_9226_924)" d="M155.5 95.816c4.115 6.172 6.777 13.918 7.746 23.237a46.4 46.4 0 0 1 8.955 5.446c9.802 7.624 14.764 18.758 14.764 32.918 0 1.694-.121 3.389-.242 5.083v-.121c.484-1.089.968-2.299 1.331-3.51.122-.363.242-.605.363-.968.242-.847.606-1.694.847-2.541.122-.363.242-.848.364-1.21.121-.485.363-1.09.483-1.574.243-.726.364-1.331.605-2.057.122-.484.243-1.09.364-1.573l.363-1.816c.121-.363.121-.847.242-1.21.121-.848.363-1.815.484-2.663 0-.362.121-.726.121-1.089l.363-2.904c0-.243 0-.363.121-.605.121-.969.242-1.816.242-2.784 0-.242 0-.484.122-.726.12-1.089.12-2.179.241-3.268v-.726c0-1.089.121-2.299.121-3.389 0-1.21 0-2.42-.121-3.751 0-.363 0-.727-.121-1.21 0-.848-.12-1.695-.12-2.421 0-.484-.122-.968-.122-1.453-.121-.725-.121-1.452-.242-2.178 0-.484-.121-.968-.242-1.573-.121-.726-.121-1.332-.242-2.057-.121-.485-.121-1.09-.242-1.574-.121-.605-.242-1.331-.363-1.936-.121-.484-.242-1.089-.363-1.574l-.363-1.815c-.121-.484-.243-1.089-.363-1.574-.121-.605-.363-1.21-.485-1.815-.12-.484-.242-1.089-.483-1.573-.122-.605-.364-1.089-.484-1.694-.122-.484-.363-1.09-.485-1.574-.242-.605-.363-1.089-.605-1.573s-.363-1.09-.605-1.573c-.242-.484-.363-1.09-.605-1.573a8.4 8.4 0 0 1-.605-1.574l-.726-1.452a20 20 0 0 1-.726-1.573l-.727-1.452c-.241-.485-.483-.969-.846-1.453-.242-.484-.484-.968-.847-1.331-.242-.484-.606-.968-.847-1.452-.242-.485-.606-.848-.847-1.332-.848-1.331-1.816-2.662-2.784-3.994-.726-.968-1.453-1.815-2.178-2.662z"/><defs><linearGradient id="paint0_linear_9226_924" x1="103.728" x2="46.918" y1="134.983" y2="92.534" gradientUnits="userSpaceOnUse"><stop offset=".001" stop-color="#fff"/><stop offset="1" stop-color="#1E313F"/></linearGradient><linearGradient id="paint1_linear_9226_924" x1="152.737" x2="205.179" y1="113.703" y2="154.586" gradientUnits="userSpaceOnUse"><stop offset=".001" stop-color="#fff"/><stop offset=".997" stop-color="#4E5A64"/></linearGradient></defs></svg>
